assets/svg/currencies/fiat/KRW.svg

<svg width="300" height="300" viewBox="0 0 300 300" fill="none" xmlns="http://www.w3.org/2000/svg">
<path d="M150 300C232.843 300 300 232.843 300 150C300 67.1573 232.843 0 150 0C67.1573 0 0 67.1573 0 150C0 232.843 67.1573 300 150 300Z" fill="#10BA97"/>
<path d="M98.1392 228L89.1192 173.66H70.1992V157.38H86.4792L83.8392 141.54H70.1992V125.26H81.1992L72.1792 70.92H97.0392L105.399 125.26H125.639L135.099 70.92H163.039L172.279 125.26H192.739L200.879 70.92H225.739L216.719 125.26H227.939V141.54H214.079L211.439 157.38H227.939V173.66H208.799L199.779 228H168.979L159.079 173.66H138.839L129.159 228H98.1392ZM146.759 125.26H151.159L148.959 105.02L146.759 125.26ZM110.239 157.38H120.139L122.779 141.54H107.819L110.239 157.38ZM141.919 157.38H155.999L153.139 141.54H144.779L141.919 157.38ZM177.999 157.38H188.119L190.319 141.54H175.139L177.999 157.38ZM114.859 195.66L117.499 173.66H112.439L114.859 195.66ZM183.279 195.66L185.699 173.66H180.419L183.279 195.66Z" fill="white"/>
</svg>

<svg viewBox="0 0 300 300" fill="none" xmlns="http://www.w3.org/2000/svg">
    <path d="M150 300c82.843 0 150-67.157 150-150S232.843 0 150 0 0 67.157 0 150s67.157 150 150 150z" fill="#10BA97"/>
    <path d="M98.14 228l-9.02-54.34H70.2v-16.28h16.28l-2.64-15.84H70.2v-16.28h11l-9.02-54.34h24.86l8.359 54.34h20.24l9.46-54.34h27.94l9.24 54.34h20.46l8.14-54.34h24.86l-9.02 54.34h11.22v16.28h-13.86l-2.64 15.84h16.5v16.28h-19.14l-9.02 54.34h-30.8l-9.9-54.34h-20.24l-9.68 54.34h-31.02zm48.619-102.74h4.4l-2.2-20.24-2.2 20.24zm-36.52 32.12h9.9l2.64-15.84h-14.96l2.42 15.84zm31.68 0h14.08l-2.86-15.84h-8.36l-2.86 15.84zm36.08 0h10.12l2.2-15.84h-15.18l2.86 15.84zm-63.14 38.28l2.64-22h-5.06l2.42 22zm68.42 0l2.42-22h-5.28l2.86 22z" fill="#fff"/>
</svg>
